elements/app-hax/lib/assets/images/ButtonBGLM.svg

<svg xmlns="http://www.w3.org/2000/svg" fill="none" width="42" height="42" viewBox="0 0 42 42"><path d="M1 17h1v8H1v-8Zm1-4h1v4H2v-4Zm1-2h1v2H3v-2Zm1-1h1v1H4v-1Zm1-2h1v2H5V8Zm1-1h1v1H6V7Zm7-5v1h4V2h-4Zm-2 1v1h2V3h-2Zm-1 1v1h1V4h-1ZM8 5v1h2V5H8ZM7 6v1h1V6H7Zm10 35v-1h8v1h-8Zm-4-1v-1h4v1h-4Zm-2-1v-1h2v1h-2Zm-1-1v-1h1v1h-1Zm-2-1v-1h2v1H8Zm-1-1v-1h1v1H7Zm-5-7h1v-4H2v4Zm1 2h1v-2H3v2Zm1 1h1v-1H4v1Zm1 2h1v-2H5v2Zm1 1h1v-1H6v1Zm35-10h-1v-8h1v8Zm-1 4h-1v-4h1v4Zm-1 2h-1v-2h1v2Zm-1 1h-1v-1h1v1Zm-1 2h-1v-2h1v2Zm-1 1h-1v-1h1v1Zm-7 5v-1h-4v1h4Zm2-1v-1h-2v1h2Zm1-1v-1h-1v1h1Zm2-1v-1h-2v1h2Zm1-1v-1h-1v1h1ZM25 1v1h-8V1h8Zm4 1v1h-4V2h4Zm2 1v1h-2V3h2Zm1 1v1h-1V4h1Zm2 1v1h-2V5h2Zm1 1v1h-1V6h1Zm5 7h-1v4h1v-4Zm-1-2h-1v2h1v-2Zm-1-1h-1v1h1v-1Zm-1-2h-1v2h1V8Zm-1-1h-1v1h1V7Z" fill="#000"/><path d="M2 17h1v-4h1v-2h1v-1h1V8h1V7h1V6h2V5h1V4h2V3h4V2h8v1h4v1h2v1h1v1h2v1h1v1h1v2h1v1h1v2h1v4h1v8h-1v4h-1v2h-1v1h-1v2h-1v1h-1v1h-2v1h-1v1h-2v1h-4v1h-8v-1h-4v-1h-2v-1h-1v-1H8v-1H7v-1H6v-2H5v-1H4v-2H3v-4H2v-8Z" fill="#5E5E5E" fill-opacity=".5"/><path d="M11 38v-1h-1v-1h3v1h15v-1h2v-1h2v-1h1v-1h1v-1h1v-1l1 1h1v-1h-1v3h-1v1h-1v1h-2v1h-1v1h-2v1h-4v1h-8v-1h-4v-1h-2Z" fill="#3D3D3D" fill-opacity=".5"/><path d="M38 31h-2v1-5h1V14h-1v-2h-1V9h-1V8h-1V7h-1V6h-1V5h1v1h2v1h1v1h1v2h1v1h1v2h1v4h1v8h-1v4h-1v2Z" fill="#3D3D3D" fill-opacity=".5"/><path d="M27 37v-1h2v-1h1v-1h2v-1h1v-1h1v-1h1v-1h1v2l-1-1v1h-1v1h-1v1h-1v1h-2v1h-2v1h-1Z" fill="#3D3D3D" fill-opacity=".5"/></svg>

<svg width="42" height="42" viewBox="0 0 42 42" fill="none" xmlns="http://www.w3.org/2000/svg">
<path d="M1 17H2V25H1V17Z" fill="black"/>
<path d="M2 13H3V17H2V13Z" fill="black"/>
<path d="M3 11H4V13H3V11Z" fill="black"/>
<path d="M4 10H5V11H4V10Z" fill="black"/>
<path d="M5 8H6V10H5V8Z" fill="black"/>
<path d="M6 7H7V8H6V7Z" fill="black"/>
<path d="M13 2V3H17V2H13Z" fill="black"/>
<path d="M11 3V4H13V3H11Z" fill="black"/>
<path d="M10 4V5H11V4H10Z" fill="black"/>
<path d="M8 5V6H10V5H8Z" fill="black"/>
<path d="M7 6V7H8V6H7Z" fill="black"/>
<path d="M17 41V40H25V41H17Z" fill="black"/>
<path d="M13 40V39H17V40H13Z" fill="black"/>
<path d="M11 39V38H13V39H11Z" fill="black"/>
<path d="M10 38V37H11V38H10Z" fill="black"/>
<path d="M8 37V36H10V37H8Z" fill="black"/>
<path d="M7 36V35H8V36H7Z" fill="black"/>
<path d="M2 29H3V25H2V29Z" fill="black"/>
<path d="M3 31H4V29H3V31Z" fill="black"/>
<path d="M4 32H5V31H4V32Z" fill="black"/>
<path d="M5 34H6V32H5V34Z" fill="black"/>
<path d="M6 35H7V34H6V35Z" fill="black"/>
<path d="M41 25H40V17H41V25Z" fill="black"/>
<path d="M40 29H39V25H40V29Z" fill="black"/>
<path d="M39 31H38V29H39V31Z" fill="black"/>
<path d="M38 32H37V31H38V32Z" fill="black"/>
<path d="M37 34H36V32H37V34Z" fill="black"/>
<path d="M36 35H35V34H36V35Z" fill="black"/>
<path d="M29 40V39H25V40H29Z" fill="black"/>
<path d="M31 39V38H29V39H31Z" fill="black"/>
<path d="M32 38V37H31V38H32Z" fill="black"/>
<path d="M34 37V36H32V37H34Z" fill="black"/>
<path d="M35 36V35H34V36H35Z" fill="black"/>
<path d="M25 1V2H17V1H25Z" fill="black"/>
<path d="M29 2V3H25V2H29Z" fill="black"/>
<path d="M31 3V4H29V3H31Z" fill="black"/>
<path d="M32 4V5H31V4H32Z" fill="black"/>
<path d="M34 5V6H32V5H34Z" fill="black"/>
<path d="M35 6V7H34V6H35Z" fill="black"/>
<path d="M40 13H39V17H40V13Z" fill="black"/>
<path d="M39 11H38V13H39V11Z" fill="black"/>
<path d="M38 10H37V11H38V10Z" fill="black"/>
<path d="M37 8H36V10H37V8Z" fill="black"/>
<path d="M36 7H35V8H36V7Z" fill="black"/>
<path d="M2 17H3V13H4V11H5V10H6V8H7V7H8V6H10V5H11V4H13V3H17V2H25V3H29V4H31V5H32V6H34V7H35V8H36V10H37V11H38V13H39V17H40V25H39V29H38V31H37V32H36V34H35V35H34V36H32V37H31V38H29V39H25V40H17V39H13V38H11V37H10V36H8V35H7V34H6V32H5V31H4V29H3V25H2V17Z" fill="#5E5E5E" fill-opacity="0.5"/>
<path d="M11 38V37H10V36H13V37H28V36H30V35H32V34H33V33H34V32H35V31L36 32H37V31H36V32V34H35V35H34V36H32V37H31V38H29V39H25V40H17V39H13V38H11Z" fill="#3D3D3D" fill-opacity="0.5"/>
<path d="M38 31H37H36V32V27H37V14H36V12H35V9H34V8H33V7H32V6H31V5H32V6H34V7H35V8H36V10H37V11H38V13H39V17H40V25H39V29H38V31Z" fill="#3D3D3D" fill-opacity="0.5"/>
<path d="M27 37V36H28H29V35H30V34H32V33H33V32H34V31H35V30H36V31V32L35 31V32H34V33H33V34H32V35H30V36H29H28V37H27Z" fill="#3D3D3D" fill-opacity="0.5"/>
</svg>
